packages/tokens/icons/support/size16Px.svg

<svg viewBox="0 0 16 16" fill="none" xmlns="http://www.w3.org/2000/svg" width="1em" height="1em"><rect x="1.5" y="2.5" width="13" height="11" rx="1.5" stroke="currentColor"/><path d="M1.5 4.5L14.5 4.5" stroke="currentColor"/><mask id="path-3-inside-1_2_59290" fill="currentColor"><path d="M11.0117 8.83722C11.2481 8.84336 11.4349 9.04003 11.4287 9.27651L11.4202 9.60457C11.4141 9.84108 11.2174 10.0278 10.9809 10.0217C10.7824 10.0166 10.6099 10.1502 10.5341 10.3336C10.5165 10.3762 10.4978 10.4182 10.478 10.4595C10.3923 10.6386 10.4085 10.8562 10.5453 11.0002C10.7082 11.1718 10.7011 11.443 10.5295 11.6059L10.2916 11.8318C10.12 11.9947 9.84887 11.9876 9.68597 11.8161C9.54925 11.6721 9.33279 11.6446 9.14945 11.7208C9.10709 11.7385 9.06415 11.755 9.02069 11.7704C8.83351 11.8366 8.69111 12.0019 8.68596 12.2004C8.67983 12.4369 8.48313 12.6236 8.24663 12.6175L7.91862 12.609C7.6821 12.6028 7.49535 12.4061 7.50148 12.1696C7.50663 11.9711 7.37301 11.7986 7.18952 11.7228C7.14691 11.7052 7.1049 11.6865 7.06351 11.6667C6.88433 11.581 6.66665 11.5972 6.52261 11.7339C6.35098 11.8969 6.07977 11.8898 5.91683 11.7182L5.69113 11.4805C5.52815 11.3088 5.53519 11.0376 5.70685 10.8746C5.85091 10.7378 5.8784 10.5213 5.80212 10.3378C5.78457 10.2956 5.76812 10.2529 5.75281 10.2096C5.68658 10.0224 5.52124 9.88001 5.32275 9.87486C5.08621 9.86873 4.89944 9.672 4.90558 9.43546L4.91409 9.10749C4.92023 8.87099 5.11692 8.68424 5.35343 8.69038C5.55191 8.69553 5.72439 8.56189 5.80022 8.37839C5.81782 8.33579 5.83654 8.29377 5.85634 8.25238C5.94203 8.07319 5.92582 7.85552 5.78906 7.71147C5.6261 7.53984 5.63314 7.2686 5.80478 7.10565L6.04252 6.87993C6.21415 6.71698 6.48539 6.72402 6.64835 6.89565C6.78511 7.0397 7.00165 7.06718 7.18504 6.9909C7.22739 6.97328 7.27031 6.95677 7.31376 6.94141C7.50092 6.87521 7.6433 6.70991 7.64845 6.51145C7.65459 6.27498 7.85126 6.08825 8.08774 6.09439L8.41583 6.1029C8.65233 6.10904 8.83907 6.30573 8.83293 6.54222C8.82778 6.74068 8.96139 6.91315 9.14487 6.98898C9.1874 7.00656 9.22934 7.02524 9.27066 7.045C9.44983 7.13068 9.66748 7.11447 9.81151 6.97772C9.98313 6.81478 10.2543 6.82182 10.4173 6.99344L10.6431 7.23126C10.806 7.40287 10.799 7.67406 10.6274 7.83699C10.4833 7.97373 10.4559 8.19024 10.5321 8.37361C10.5498 8.41602 10.5663 8.459 10.5817 8.50252C10.6479 8.68968 10.8132 8.83207 11.0117 8.83722Z"/></mask><path d="M10.5817 8.50252L11.5245 8.16909L11.5245 8.16909L10.5817 8.50252ZM11.0117 8.83722L11.0376 7.83756L11.0376 7.83756L11.0117 8.83722ZM10.6274 7.83699L11.3159 8.5622L10.6274 7.83699ZM10.5321 8.37361L9.60885 8.75771L10.5321 8.37361ZM10.6431 7.23126L11.3683 6.54274L11.3683 6.54273L10.6431 7.23126ZM9.81151 6.97772L10.5 7.70294L9.81151 6.97772ZM10.4173 6.99344L9.69208 7.68197L9.69208 7.68197L10.4173 6.99344ZM9.27066 7.045L9.70207 6.14285L9.27066 7.045ZM8.83293 6.54222L7.83327 6.51628L8.83293 6.54222ZM9.14487 6.98898L8.76291 7.91316L9.14487 6.98898ZM8.41583 6.1029L8.44177 5.10324L8.41583 6.1029ZM7.64845 6.51145L8.64811 6.53739L8.64811 6.53739L7.64845 6.51145ZM8.08774 6.09439L8.0618 7.09405L8.08774 6.09439ZM7.31376 6.94141L6.98031 5.99864L6.98031 5.99864L7.31376 6.94141ZM6.64835 6.89565L7.37356 6.20713L6.64835 6.89565ZM7.18504 6.9909L6.80099 6.06759L7.18504 6.9909ZM6.04252 6.87993L5.35399 6.15472L5.35399 6.15472L6.04252 6.87993ZM5.78906 7.71147L6.51427 7.02295L5.78906 7.71147ZM5.80478 7.10565L6.4933 7.83086L6.4933 7.83086L5.80478 7.10565ZM5.85634 8.25238L4.95419 7.82095L5.85634 8.25238ZM5.35343 8.69038L5.32749 9.69004L5.35343 8.69038ZM5.80022 8.37839L6.72443 8.76029L5.80022 8.37839ZM4.91409 9.10749L5.91375 9.13343L5.91375 9.13343L4.91409 9.10749ZM5.32275 9.87486L5.29681 10.8745L5.32275 9.87486ZM4.90558 9.43546L3.90591 9.40952L3.90591 9.40952L4.90558 9.43546ZM5.75281 10.2096L4.81008 10.5432L5.75281 10.2096ZM5.70685 10.8746L5.01832 10.1494L5.70685 10.8746ZM5.80212 10.3378L4.87878 10.7218L5.80212 10.3378ZM5.69113 11.4805L4.96592 12.169L5.69113 11.4805ZM6.52261 11.7339L7.21113 12.4591L6.52261 11.7339ZM5.91683 11.7182L6.64204 11.0297L5.91683 11.7182ZM7.06351 11.6667L7.49501 10.7646L7.06351 11.6667ZM7.50148 12.1696L6.50182 12.1437L6.50182 12.1437L7.50148 12.1696ZM7.18952 11.7228L7.57148 10.7986L7.18952 11.7228ZM7.91862 12.609L7.94456 11.6093L7.91862 12.609ZM8.68596 12.2004L7.6863 12.1744L8.68596 12.2004ZM8.24663 12.6175L8.22069 13.6171L8.24663 12.6175ZM9.02069 11.7704L9.35416 12.7131L9.02069 11.7704ZM9.68597 11.8161L10.4112 11.1275L9.68597 11.8161ZM9.14945 11.7208L8.76536 10.7976L9.14945 11.7208ZM10.2916 11.8318L9.60307 11.1066L9.60307 11.1066L10.2916 11.8318ZM10.5453 11.0002L9.82005 11.6888L10.5453 11.0002ZM10.5295 11.6059L11.2181 12.3311L11.2181 12.3311L10.5295 11.6059ZM10.478 10.4595L11.3801 10.891L10.478 10.4595ZM10.9809 10.0217L11.0068 9.02204L10.9809 10.0217ZM10.5341 10.3336L11.4582 10.7156L10.5341 10.3336ZM11.4287 9.27651L12.4284 9.30245L12.4284 9.30245L11.4287 9.27651ZM11.4202 9.60457L10.4206 9.57863L11.4202 9.60457ZM12.4199 9.63051L12.4284 9.30245L10.4291 9.25057L10.4206 9.57863L12.4199 9.63051ZM11.3801 10.891C11.4077 10.8334 11.4337 10.7749 11.4582 10.7156L9.60991 9.95165C9.59924 9.97747 9.58789 10.0029 9.57589 10.028L11.3801 10.891ZM10.9801 12.557L11.2181 12.3311L9.84102 10.8806L9.60307 11.1066L10.9801 12.557ZM9.35416 12.7131C9.41472 12.6917 9.47454 12.6687 9.53354 12.6441L8.76536 10.7976C8.73964 10.8083 8.71358 10.8183 8.68721 10.8276L9.35416 12.7131ZM7.89268 13.6086L8.22069 13.6171L8.27257 11.6178L7.94456 11.6093L7.89268 13.6086ZM6.63201 12.5688C6.68965 12.5964 6.74818 12.6224 6.80755 12.647L7.57148 10.7986C7.54564 10.7879 7.52014 10.7766 7.49501 10.7646L6.63201 12.5688ZM4.96592 12.169L5.19162 12.4067L6.64204 11.0297L6.41634 10.792L4.96592 12.169ZM4.81008 10.5432C4.83142 10.6035 4.85434 10.663 4.87878 10.7218L6.72547 9.95388C6.71481 9.92825 6.70483 9.9023 6.69554 9.87604L4.81008 10.5432ZM3.91442 9.08155L3.90591 9.40952L5.90524 9.4614L5.91375 9.13343L3.91442 9.08155ZM4.95419 7.82095C4.92662 7.8786 4.90054 7.93713 4.87601 7.9965L6.72443 8.76029C6.7351 8.73444 6.74646 8.70895 6.75848 8.68381L4.95419 7.82095ZM5.35399 6.15472L5.11625 6.38044L6.4933 7.83086L6.73104 7.60515L5.35399 6.15472ZM6.98031 5.99864C6.91977 6.02005 6.85998 6.04305 6.80099 6.06759L7.56909 7.91421C7.59481 7.90351 7.62086 7.89349 7.64721 7.88417L6.98031 5.99864ZM8.44177 5.10324L8.11368 5.09472L8.0618 7.09405L8.38989 7.10256L8.44177 5.10324ZM9.70207 6.14285C9.64452 6.11533 9.58609 6.08929 9.52683 6.0648L8.76291 7.91316C8.7887 7.92382 8.81416 7.93516 8.83925 7.94716L9.70207 6.14285ZM9.69208 7.68197L9.91786 7.91979L11.3683 6.54273L11.1425 6.30492L9.69208 7.68197ZM11.5245 8.16909C11.503 8.10846 11.48 8.04858 11.4554 7.9895L9.60885 8.75771C9.61956 8.78346 9.6296 8.80955 9.63893 8.83594L11.5245 8.16909ZM9.63893 8.83594C9.8169 9.33914 10.2994 9.81907 10.9857 9.83688L11.0376 7.83756C11.327 7.84507 11.4789 8.04023 11.5245 8.16909L9.63893 8.83594ZM9.93883 7.11178C9.44088 7.58454 9.40361 8.26436 9.60885 8.75771L11.4554 7.9895C11.5081 8.11612 11.5258 8.36292 11.3159 8.5622L9.93883 7.11178ZM9.91786 7.91979C9.70053 7.69087 9.70992 7.32912 9.93883 7.11178L11.3159 8.5622C11.888 8.01901 11.9115 7.11486 11.3683 6.54274L9.91786 7.91979ZM10.5 7.70294C10.2711 7.92026 9.9094 7.91087 9.69208 7.68197L11.1425 6.30492C10.5993 5.73277 9.69513 5.70931 9.12298 6.25251L10.5 7.70294ZM8.83925 7.94716C9.32129 8.17767 10.0021 8.17568 10.5 7.70294L9.12298 6.25251C9.33286 6.05326 9.57838 6.0837 9.70207 6.14285L8.83925 7.94716ZM7.83327 6.51628C7.81546 7.20257 8.26967 7.70931 8.76291 7.91316L9.52683 6.0648C9.65311 6.117 9.8401 6.27879 9.83259 6.56816L7.83327 6.51628ZM8.38989 7.10256C8.07429 7.09437 7.82508 6.83189 7.83327 6.51628L9.83259 6.56816C9.85306 5.77957 9.23037 5.1237 8.44177 5.10324L8.38989 7.10256ZM8.64811 6.53739C8.63992 6.85301 8.37742 7.10224 8.0618 7.09405L8.11368 5.09472C7.3251 5.07426 6.66925 5.69694 6.64879 6.48551L8.64811 6.53739ZM7.64721 7.88417C8.15039 7.7062 8.6303 7.2237 8.64811 6.53739L6.64879 6.48551C6.6563 6.19611 6.85145 6.04421 6.98031 5.99864L7.64721 7.88417ZM5.92314 7.58418C6.39591 8.08214 7.07573 8.11942 7.56909 7.91421L6.80099 6.06759C6.92756 6.01494 7.17431 5.99726 7.37356 6.20713L5.92314 7.58418ZM6.73104 7.60515C6.50216 7.82245 6.14044 7.81307 5.92314 7.58418L7.37356 6.20713C6.83034 5.63497 5.92615 5.61151 5.35399 6.15472L6.73104 7.60515ZM6.51427 7.02295C6.73158 7.25184 6.72219 7.61355 6.4933 7.83086L5.11625 6.38044C4.54409 6.92365 4.52063 7.82784 5.06384 8.4L6.51427 7.02295ZM6.75848 8.68381C6.98901 8.20176 6.98704 7.52091 6.51427 7.02295L5.06384 8.4C4.86459 8.19013 4.89505 7.94463 4.95419 7.82095L6.75848 8.68381ZM5.32749 9.69004C6.01384 9.70785 6.52059 9.25357 6.72443 8.76029L4.87601 7.9965C4.92819 7.87022 5.08998 7.68321 5.37937 7.69072L5.32749 9.69004ZM5.91375 9.13343C5.90556 9.44903 5.64308 9.69823 5.32749 9.69004L5.37937 7.69072C4.59076 7.67025 3.93489 8.29295 3.91442 9.08155L5.91375 9.13343ZM5.34869 8.8752C5.66425 8.88339 5.91343 9.14584 5.90524 9.4614L3.90591 9.40952C3.88545 10.1982 4.50818 10.8541 5.29681 10.8745L5.34869 8.8752ZM6.69554 9.87604C6.51751 9.3729 6.03501 8.89301 5.34869 8.8752L5.29681 10.8745C5.00748 10.867 4.85564 10.6719 4.81008 10.5432L6.69554 9.87604ZM6.39538 11.5998C6.89332 11.127 6.93063 10.4472 6.72547 9.95388L4.87878 10.7218C4.82616 10.5953 4.80849 10.3486 5.01832 10.1494L6.39538 11.5998ZM6.41634 10.792C6.63363 11.0208 6.62424 11.3825 6.39538 11.5998L5.01832 10.1494C4.44614 10.6926 4.42268 11.5968 4.96592 12.169L6.41634 10.792ZM5.83408 11.0087C6.06298 10.7914 6.42472 10.8008 6.64204 11.0297L5.19162 12.4067C5.73482 12.9789 6.63899 13.0023 7.21113 12.4591L5.83408 11.0087ZM7.49501 10.7646C7.01295 10.534 6.33206 10.5359 5.83408 11.0087L7.21113 12.4591C7.00124 12.6584 6.7557 12.6279 6.63201 12.5688L7.49501 10.7646ZM8.50115 12.1955C8.51896 11.5092 8.06473 11.0025 7.57148 10.7986L6.80755 12.647C6.68129 12.5948 6.49431 12.433 6.50182 12.1437L8.50115 12.1955ZM7.94456 11.6093C8.26014 11.6175 8.50934 11.88 8.50115 12.1955L6.50182 12.1437C6.48136 12.9323 7.10406 13.5882 7.89268 13.6086L7.94456 11.6093ZM7.6863 12.1744C7.69449 11.8588 7.95697 11.6096 8.27257 11.6178L8.22069 13.6171C9.00929 13.6376 9.66516 13.0149 9.68563 12.2263L7.6863 12.1744ZM8.68721 10.8276C8.18404 11.0056 7.70411 11.4881 7.6863 12.1744L9.68563 12.2263C9.67812 12.5157 9.48298 12.6676 9.35416 12.7131L8.68721 10.8276ZM10.4112 11.1275C9.93846 10.6296 9.25869 10.5923 8.76536 10.7976L9.53354 12.6441C9.40688 12.6968 9.16005 12.7145 8.96076 12.5046L10.4112 11.1275ZM9.60307 11.1066C9.83201 10.8892 10.1938 10.8986 10.4112 11.1275L8.96076 12.5046C9.50392 13.0767 10.408 13.1001 10.9801 12.557L9.60307 11.1066ZM9.82005 11.6888C9.60268 11.4598 9.61207 11.098 9.84102 10.8806L11.2181 12.3311C11.7902 11.7879 11.8136 10.8838 11.2705 10.3117L9.82005 11.6888ZM9.57589 10.028C9.34534 10.5101 9.34733 11.1909 9.82005 11.6888L11.2705 10.3117C11.4698 10.5216 11.4393 10.7672 11.3801 10.891L9.57589 10.028ZM11.0068 9.02204C10.3205 9.00423 9.81378 9.45843 9.60991 9.95165L11.4582 10.7156C11.4061 10.8419 11.2443 11.0289 10.9549 11.0214L11.0068 9.02204ZM12.4284 9.30245C12.4489 8.51387 11.8262 7.85802 11.0376 7.83756L10.9857 9.83688C10.6701 9.82869 10.4209 9.56619 10.4291 9.25057L12.4284 9.30245ZM10.4206 9.57863C10.4288 9.26304 10.6912 9.01385 11.0068 9.02204L10.9549 11.0214C11.7435 11.0418 12.3994 10.4191 12.4199 9.63051L10.4206 9.57863Z" fill="currentColor" mask="url(#path-3-inside-1_2_59290)"/></svg>

<svg xmlns="http://www.w3.org/2000/svg" fill="none" viewBox="0 0 16 16" width="1em" height="1em"><rect width="13" height="11" x="1.5" y="2.5" stroke="currentColor" rx="1.5"/><path stroke="currentColor" d="M1.5 4.5h13"/><mask id="iconsSupportSize16Px__a" fill="#fff"><path d="M11.012 8.837a.428.428 0 0 1 .417.44l-.009.328a.428.428 0 0 1-.44.417.482.482 0 0 0-.446.312 2.495 2.495 0 0 1-.056.126.482.482 0 0 0 .067.54.428.428 0 0 1-.015.606l-.238.226a.428.428 0 0 1-.606-.016.482.482 0 0 0-.537-.095 2.497 2.497 0 0 1-.128.05.482.482 0 0 0-.335.43.428.428 0 0 1-.44.416l-.327-.008a.428.428 0 0 1-.418-.44.482.482 0 0 0-.311-.446 2.531 2.531 0 0 1-.126-.056.482.482 0 0 0-.541.067.428.428 0 0 1-.606-.016l-.226-.238a.429.429 0 0 1 .016-.605.482.482 0 0 0 .095-.537 2.53 2.53 0 0 1-.05-.128.482.482 0 0 0-.43-.335.428.428 0 0 1-.416-.44l.008-.328a.428.428 0 0 1 .44-.417.482.482 0 0 0 .446-.312l.056-.126a.482.482 0 0 0-.067-.54.429.429 0 0 1 .016-.606l.238-.226a.429.429 0 0 1 .605.016.482.482 0 0 0 .537.095c.042-.018.085-.034.129-.05a.482.482 0 0 0 .334-.43.428.428 0 0 1 .44-.417l.328.009a.428.428 0 0 1 .417.44.482.482 0 0 0 .312.446c.042.018.084.036.126.056a.48.48 0 0 0 .54-.067.429.429 0 0 1 .606.015l.226.238a.428.428 0 0 1-.016.606.482.482 0 0 0-.095.537c.018.042.034.085.05.129a.48.48 0 0 0 .43.334Z"/></mask><path fill="currentColor" d="m10.582 8.503.942-.334-.942.334Zm.43.334.026-1-.026 1Zm-.385-1 .689.725-.689-.725Zm-.095.537-.923.384.923-.384Zm.111-1.143.725-.688-.725.688Zm-.831-.253.688.725-.688-.725Zm.605.015-.725.689.725-.689Zm-1.146.052.431-.902-.431.902Zm-.438-.503-1-.026 1 .026Zm.312.447-.382.924.382-.924Zm-.73-.886.027-1-.026 1Zm-.767.408 1 .026-1-.026Zm.44-.417-.026 1 .026-1Zm-.774.847L6.98 6l.334.942Zm-.666-.045.726-.689-.726.689Zm.537.095-.384-.923.384.923ZM6.043 6.88l-.689-.725.689.725Zm-.254.831.725-.688-.725.688Zm.016-.605.688.725-.688-.725Zm.051 1.146-.902-.431.902.431Zm-.503.438-.026 1 .026-1Zm.447-.312.924.382-.924-.382Zm-.886.73 1 .025-1-.026Zm.409.767-.026 1 .026-1Zm-.417-.44-1-.025 1 .025Zm.847.775-.943.333.943-.333Zm-.046.665-.689-.726.689.726Zm.095-.537-.923.384.923-.384Zm-.11 1.143-.726.688.725-.689Zm.83.253.69.725-.69-.725Zm-.605-.016.725-.688-.725.688Zm1.147-.051.431-.902-.431.902Zm.437.503-1-.026 1 .026Zm-.311-.447.381-.924-.381.924Zm.729.886.026-1-.026 1Zm.767-.409-1-.026 1 .026Zm-.44.418-.025 1 .026-1Zm.775-.848.333.943-.333-.943Zm.665.046.725-.689-.725.69Zm-.537-.095-.384-.923.384.923Zm1.143.11-.689-.724.689.725Zm.253-.83-.725.688.725-.689Zm-.015.605.688.725-.688-.725Zm-.052-1.146.902.431-.902-.431Zm.503-.438.026-1-.026 1Zm-.447.312.924.382-.924-.382Zm.895-1.057 1 .025-1-.025Zm-.009.328-1-.026 1 .026Zm1 .026.008-.329-1.999-.051-.008.328 1.999.052Zm-1.04 1.26c.028-.058.054-.116.078-.175L9.61 9.952c-.01.025-.022.05-.034.076l1.804.863Zm-.4 1.666.238-.226-1.377-1.45-.238.226 1.377 1.45Zm-1.626.156c.06-.021.12-.044.18-.069l-.769-1.846-.078.03.667 1.885Zm-1.461.896.328.008.052-2-.328-.008-.052 2Zm-1.261-1.04c.058.027.116.053.176.078l.763-1.848a1.582 1.582 0 0 1-.076-.034l-.863 1.804Zm-1.666-.4.226.238 1.45-1.377-.226-.238-1.45 1.377Zm-.156-1.626c.021.06.044.12.069.179l1.846-.768a1.54 1.54 0 0 1-.03-.078l-1.885.667Zm-.896-1.461-.008.328 2 .051.008-.328-2-.051Zm1.04-1.261a3.541 3.541 0 0 0-.078.176l1.848.763.034-.076-1.804-.863Zm.4-1.666-.238.225 1.377 1.45.238-.225-1.377-1.45Zm1.626-.156c-.06.021-.12.044-.179.069l.768 1.846.078-.03L6.98 6Zm1.462-.896-.328-.008-.052 2 .328.008.052-2Zm1.26 1.04a3.542 3.542 0 0 0-.175-.078l-.764 1.848c.026.01.051.022.076.034l.863-1.804Zm-.01 1.539.226.238 1.45-1.377-.226-.238-1.45 1.377Zm1.832.487a3.578 3.578 0 0 0-.069-.18l-1.846.769.03.078 1.886-.667Zm-1.885.667c.178.503.66.983 1.347 1l.052-1.998a.52.52 0 0 1 .486.331l-1.885.667Zm.3-1.724c-.498.473-.535 1.152-.33 1.646l1.846-.768a.52.52 0 0 1-.14.572L9.94 7.112Zm-.021.808a.572.572 0 0 1 .02-.808l1.378 1.45a1.428 1.428 0 0 0 .052-2.02L9.918 7.92Zm.582-.217a.571.571 0 0 1-.808-.021l1.45-1.377a1.428 1.428 0 0 0-2.019-.052l1.377 1.45Zm-1.66.244c.481.23 1.162.229 1.66-.244l-1.377-1.45a.52.52 0 0 1 .58-.11l-.864 1.804Zm-1.007-1.43c-.018.686.437 1.192.93 1.396l.764-1.848a.52.52 0 0 1 .306.503l-2-.052Zm.557.586a.572.572 0 0 1-.557-.587l2 .052a1.428 1.428 0 0 0-1.391-1.465l-.052 2Zm.258-.566a.572.572 0 0 1-.586.557l.052-2a1.428 1.428 0 0 0-1.465 1.392l2 .051Zm-1 1.347c.502-.178.982-.66 1-1.347l-2-.051a.52.52 0 0 1 .332-.487l.667 1.885Zm-1.725-.3c.473.498 1.153.535 1.646.33l-.768-1.846a.52.52 0 0 1 .573.14l-1.45 1.376Zm.808.021a.571.571 0 0 1-.808-.02l1.45-1.378a1.429 1.429 0 0 0-2.019-.052l1.377 1.45Zm-.217-.582a.571.571 0 0 1-.02.808L5.115 6.38a1.429 1.429 0 0 0-.051 2.02l1.45-1.377Zm.244 1.66c.231-.481.229-1.162-.244-1.66L5.064 8.4a.52.52 0 0 1-.11-.58l1.804.864ZM5.328 9.69c.686.018 1.193-.436 1.396-.93l-1.848-.763a.52.52 0 0 1 .503-.306L5.327 9.69Zm.586-.557a.572.572 0 0 1-.587.557l.052-2a1.428 1.428 0 0 0-1.465 1.392l2 .051Zm-.565-.258c.315.008.564.27.556.586l-2-.051a1.428 1.428 0 0 0 1.392 1.464l.052-1.999Zm1.347 1.001c-.178-.503-.661-.983-1.347-1l-.052 1.998a.52.52 0 0 1-.487-.33l1.886-.668Zm-.3 1.724c.497-.473.535-1.153.33-1.646l-1.847.768a.52.52 0 0 1 .14-.573l1.376 1.45Zm.02-.808a.571.571 0 0 1-.02.808l-1.378-1.45a1.429 1.429 0 0 0-.052 2.019l1.45-1.377Zm-.582.217a.572.572 0 0 1 .808.02l-1.45 1.378a1.428 1.428 0 0 0 2.02.052l-1.378-1.45Zm1.661-.244c-.482-.231-1.163-.23-1.66.244l1.376 1.45a.52.52 0 0 1-.579.11l.863-1.804Zm1.006 1.43c.018-.686-.436-1.193-.93-1.396l-.763 1.848a.52.52 0 0 1-.306-.503l2 .051Zm-.556-.586a.572.572 0 0 1 .556.586l-2-.051a1.428 1.428 0 0 0 1.392 1.465l.052-2Zm-.259.565a.572.572 0 0 1 .587-.556l-.052 2a1.428 1.428 0 0 0 1.465-1.392l-2-.052Zm1.001-1.346c-.503.178-.983.66-1 1.346l1.999.052a.52.52 0 0 1-.332.487l-.667-1.885Zm1.724.3c-.473-.498-1.152-.536-1.646-.33l.769 1.846a.52.52 0 0 1-.573-.14l1.45-1.377Zm-.808-.021a.572.572 0 0 1 .808.02l-1.45 1.378a1.428 1.428 0 0 0 2.02.052l-1.378-1.45Zm.217.582a.572.572 0 0 1 .021-.808l1.377 1.45a1.428 1.428 0 0 0 .053-2.02L9.82 11.69Zm-.244-1.661c-.23.482-.229 1.163.244 1.66l1.45-1.376c.2.21.17.455.11.579l-1.804-.863Zm1.43-1.006c-.686-.018-1.192.436-1.396.93l1.848.764a.52.52 0 0 1-.503.305l.052-1.999Zm1.422.28a1.428 1.428 0 0 0-1.39-1.464l-.052 1.999a.572.572 0 0 1-.557-.586l2 .051Zm-2.007.277a.572.572 0 0 1 .586-.557l-.052 2A1.429 1.429 0 0 0 12.42 9.63l-2-.052Z" mask="url(#iconsSupportSize16Px__a)"/></svg>
